Catalina-dark/actions/22/media-album-track.svg

<svg xmlns="http://www.w3.org/2000/svg" viewBox="0 0 22 22">
  <defs id="defs3051">
    <style type="text/css" id="current-color-scheme">
      .ColorScheme-Text {
        color:#f2f2f2
      }
      </style>
  </defs>
 <path 
     style="fill:currentColor;fill-opacity:1;stroke:none"      
	 class="ColorScheme-Text"
        d="M 4.0117188 3 C 3.4507598 3 3 3.4507598 3 4.0117188 L 3 17.988281 C 3 18.54924 3.4507598 19 4.0117188 19 L 17.988281 19 C 18.54924 19 19 18.54924 19 17.988281 L 19 4.0117188 C 19 3.4507598 18.54924 3 17.988281 3 L 4.0117188 3 z M 13.904297 6.3007812 C 14.118559 6.3385875 14.275391 6.5378718 14.275391 6.8066406 L 14.257812 13.796875 C 14.187181 14.318406 13.743988 14.811541 13.101562 14.986328 C 12.296312 15.205403 11.502691 14.841594 11.330078 14.1875 C 11.157459 13.533406 11.663487 12.824544 12.46875 12.605469 C 12.914981 12.484119 13.344556 12.558481 13.679688 12.742188 L 13.679688 8.5058594 L 9.5039062 9.6777344 L 9.484375 15.044922 C 9.4137687 15.566378 8.9705501 16.061622 8.328125 16.236328 C 7.5228686 16.455403 6.7312 16.089566 6.5585938 15.435547 C 6.385975 14.781378 6.8900498 14.074544 7.6953125 13.855469 C 8.1415626 13.734119 8.5710937 13.808481 8.90625 13.992188 L 8.90625 8.3105469 C 8.90625 7.9522093 9.1734062 7.5830031 9.5039062 7.4902344 L 13.904297 6.3007812 z "
     />
</svg>

<svg viewBox="0 0 22 22" xmlns="http://www.w3.org/2000/svg">
<defs>
<style id="current-color-scheme" type="text/css">.ColorScheme-Text {
        color:#dedede
      }</style>
</defs>
<path class="ColorScheme-Text" d="m4.0117 3c-0.56096 0-1.0117 0.45076-1.0117 1.0117v13.977c0 0.56096 0.45076 1.0117 1.0117 1.0117h13.977c0.56096 0 1.0117-0.45076 1.0117-1.0117v-13.977c0-0.56096-0.45076-1.0117-1.0117-1.0117h-13.977zm9.8926 3.3008c0.21426 0.037806 0.37109 0.23709 0.37109 0.50586l-0.017579 6.9902c-0.070631 0.52153-0.51382 1.0147-1.1562 1.1895-0.80525 0.21908-1.5989-0.14473-1.7715-0.79883-0.17262-0.65409 0.33341-1.363 1.1387-1.582 0.44623-0.12135 0.87581-0.046988 1.2109 0.13672v-4.2363l-4.1758 1.1719-0.019531 5.3672c-0.070606 0.52146-0.51382 1.0167-1.1562 1.1914-0.80526 0.21908-1.5969-0.14676-1.7695-0.80078-0.17262-0.65417 0.33146-1.361 1.1367-1.5801 0.44625-0.12135 0.87578-0.046988 1.2109 0.13672v-5.6816c0-0.35834 0.26716-0.72754 0.59766-0.82031l4.4004-1.1895z" fill="currentColor"/>
</svg>
